X:1
T:Title
%%score { ( 1 4 ) | ( 2 3 ) }
L:1/8
Q:1/4=92
M:4/4
K:F
V:1 treble nm="Grand Piano"
V:4 treble 
V:2 treble 
V:3 treble 
V:1
 c2 A2 A2 G2 | F2 B2 A2 G2 | F2 d2 c2 [CGB]2 | [CFA]2 [DFB]2 [FA]2 G2 | A2 [G=B]2 [Gc]2 [Ad]2 | %5
w: Caryl~Florio * * *|||||
 [Ge]2 [Fd]2 [Ec]4 | [_Ec]2 [G_e]2 [^Fd]2 [Dc]2 | [DB]2 [DA]2 G2 F2 | F2 F2 [EG]2 [FA]2 | %9
w: ||||
 [DB]2 [EG]2 F4 |] %10
w: |
V:2
 [F,A,F]2 [A,CF]2 [B,^CE]2 [B,CE]2 | z4 [CE]4 | [A,C]2 [_A,=B,F]2[K:bass] [G,CE]2 E,2 | %3
 F,2 B,,2 z2 E2 | [F,CF]2 [F,D]2 [E,C]2 [F,A,]2 | [G,C]2 [G,=B,]2 [C,C]4 | %6
 [C,G,]2 [C,C]2 [D,A,]2 [^F,,A,]2 | [G,,G,]2 [A,,^F,]2 B,,2 =B,,2 | %8
 [C,A,C]2 [C,A,]2 [C,B,]2 [C,A,]2 | [C,G,]2 [C,B,]2 [F,A,]4 |] %10
V:3
 x8 | [A,C]2 [G,D]2 z2 B,2 | x4[K:bass] x4 | z4 C,4 | x8 | x8 | x8 | x8 | x8 | x8 |] %10
V:4
 x8 | x8 | x8 | z4 C4 | x8 | x8 | x8 | z4 [G,D]4 | x8 | x8 |] %10

